public/assets/images/About/звезда.svg

<svg width="80" height="80" viewBox="0 0 80 80" fill="none" xmlns="http://www.w3.org/2000/svg">
<g filter="url(#filter0_f)">
<path d="M70.8327 46.2145C71.7191 46.5032 72.2053 47.4554 71.9166 48.3417C71.6853 49.0559 71.0235 49.5084 70.3111 49.5084C70.1388 49.5084 69.9633 49.4814 69.7895 49.4256L66.8907 48.4836C66.0027 48.1949 65.5181 47.2428 65.8068 46.3564C66.0938 45.47 67.0477 44.9837 67.9341 45.2725L70.8327 46.2145Z" fill="#D6A850"/>
<path d="M68.0944 28.8879C68.5941 30.4259 68.1855 32.0838 67.0258 33.2149L56.8928 43.0912C56.6935 43.2854 56.604 43.5656 56.6497 43.8391L59.0419 57.7858C59.3154 59.3812 58.6722 60.9632 57.3638 61.9137C56.6243 62.4506 55.7583 62.7241 54.887 62.7241C54.2152 62.7241 53.5415 62.562 52.9185 62.2345L40.3933 55.6502C40.1468 55.5202 39.8531 55.5202 39.6083 55.6502L27.0831 62.2345C25.6497 62.9875 23.9464 62.8658 22.6379 61.9137C21.3277 60.9632 20.6845 59.3813 20.958 57.7858L23.3502 43.8391C23.3975 43.5656 23.3064 43.2854 23.1071 43.0912L12.9741 33.2149C11.816 32.0838 11.4058 30.4259 11.9071 28.8879C12.4069 27.3481 13.7119 26.2474 15.314 26.0145L29.3182 23.9802C29.5917 23.9397 29.8297 23.7674 29.953 23.5175L36.2147 10.8286C36.9325 9.37818 38.3826 8.47668 39.9999 8.47668C41.6189 8.47668 43.0692 9.37818 43.7851 10.8284L50.0486 23.5174C50.1718 23.7673 50.4082 23.9395 50.6833 23.98L64.6875 26.0144C66.288 26.2474 67.5948 27.3481 68.0944 28.8879ZM64.6689 30.7956C65.0083 30.4664 64.9323 30.0815 64.8833 29.9313C64.8343 29.781 64.6705 29.4248 64.2011 29.3573L50.1987 27.3213C48.8227 27.122 47.6342 26.2594 47.0197 25.0134L40.7581 12.3226C40.6534 12.1116 40.5032 11.9933 40.3597 11.9292C40.2162 11.8651 40.0794 11.8532 40.0001 11.8532C39.8431 11.8532 39.4531 11.8988 39.2437 12.3226L32.9802 25.0133C32.3657 26.2593 31.1771 27.1219 29.8028 27.3211L15.7986 29.3571C15.331 29.4246 15.1672 29.7809 15.1182 29.9311C15.0692 30.0814 14.9916 30.4663 15.331 30.7955L25.464 40.6736C26.4601 41.6444 26.9125 43.0406 26.6778 44.4097L24.2856 58.3565C24.2062 58.8225 24.495 59.0892 24.6216 59.1821C24.7499 59.275 25.0926 59.4675 25.5113 59.2462L38.0366 52.662C38.6511 52.3379 39.3264 52.1757 40.0001 52.1757C40.6753 52.1757 41.3489 52.3379 41.9652 52.662L54.4904 59.2462C54.9092 59.4673 55.2518 59.275 55.3784 59.1821C55.5067 59.0892 55.7954 58.8225 55.7144 58.3565L53.3222 44.4097C53.0875 43.0406 53.5417 41.6444 54.536 40.6736L64.6689 30.7956Z" fill="#D6A850"/>
<path d="M64.8833 29.9311C64.9323 30.0814 65.0082 30.4662 64.669 30.7955L54.536 40.6736C53.5416 41.6443 53.0875 43.0406 53.3221 44.4097L55.7144 58.3564C55.7954 58.8224 55.5067 59.0892 55.3784 59.1821C55.2517 59.2749 54.909 59.4674 54.4904 59.2462L41.9651 52.6619C41.3489 52.3378 40.6753 52.1757 40 52.1757C39.3264 52.1757 38.6511 52.3378 38.0365 52.6619L25.5112 59.2463C25.0924 59.4674 24.7498 59.2751 24.6214 59.1822C24.4948 59.0893 24.206 58.8226 24.2854 58.3566L26.6777 44.4098C26.9123 43.0407 26.4599 41.6445 25.4638 40.6737L15.3308 30.7956C14.9914 30.4664 15.0692 30.0815 15.1181 29.9312C15.1671 29.781 15.3308 29.4247 15.7984 29.3572L29.8027 27.3212C31.1769 27.122 32.3654 26.2594 32.98 25.0134L39.2436 12.3225C39.453 11.8988 39.843 11.8531 40 11.8531C40.0794 11.8531 40.2161 11.865 40.3596 11.9291C40.5031 11.9933 40.6534 12.1115 40.758 12.3225L47.0198 25.0133C47.6343 26.2592 48.8229 27.1219 50.1987 27.3211L64.2012 29.3571C64.6706 29.4247 64.8343 29.7809 64.8833 29.9311Z" fill="#CCA14F"/>
<path d="M59.7227 10.8283C60.4773 11.3753 60.6444 12.4321 60.0974 13.1851L58.3044 15.6518C57.9752 16.1076 57.4603 16.349 56.9369 16.349C56.5942 16.349 56.2464 16.2444 55.9459 16.0265C55.1929 15.4778 55.0258 14.4226 55.5728 13.668L57.3658 11.2014C57.9129 10.4468 58.9698 10.2796 59.7227 10.8283Z" fill="#D6A850"/>
<path d="M41.6885 66.786V69.835C41.6885 70.7686 40.9339 71.5233 40.0002 71.5233C39.0684 71.5233 38.312 70.7686 38.312 69.835V66.786C38.312 65.8542 39.0684 65.0978 40.0002 65.0978C40.9339 65.0978 41.6885 65.8542 41.6885 66.786Z" fill="#D6A850"/>
<path d="M24.4207 13.6579C24.9677 14.4125 24.8005 15.4678 24.0475 16.0164C23.747 16.2342 23.3993 16.3389 23.0565 16.3389C22.5332 16.3389 22.0183 16.0975 21.6891 15.6433L19.8962 13.1767C19.3492 12.4221 19.5163 11.3652 20.2693 10.8182C21.0239 10.2694 22.0808 10.4367 22.6278 11.1913L24.4207 13.6579Z" fill="#D6A850"/>
<path d="M14.1938 46.3529C14.4825 47.2409 13.9979 48.1931 13.1099 48.4818L10.2111 49.4238C10.0373 49.4795 9.86164 49.5065 9.68952 49.5065C8.97702 49.5065 8.31527 49.0524 8.08402 48.3399C7.79527 47.4519 8.28152 46.4996 9.1679 46.211L12.0666 45.269C12.9545 44.982 13.9068 45.4665 14.1938 46.3529Z" fill="#D6A850"/>
</g>
<path d="M70.8327 46.2145C71.7191 46.5032 72.2053 47.4554 71.9166 48.3417C71.6853 49.0559 71.0235 49.5084 70.3111 49.5084C70.1388 49.5084 69.9633 49.4814 69.7895 49.4256L66.8907 48.4836C66.0027 48.1949 65.5181 47.2428 65.8068 46.3564C66.0938 45.47 67.0477 44.9837 67.9341 45.2725L70.8327 46.2145Z" fill="#EFBE44"/>
<path d="M68.0944 28.8879C68.5941 30.4259 68.1855 32.0838 67.0258 33.2149L56.8928 43.0912C56.6935 43.2854 56.604 43.5656 56.6497 43.8391L59.0419 57.7858C59.3154 59.3812 58.6722 60.9632 57.3638 61.9137C56.6243 62.4506 55.7583 62.7241 54.887 62.7241C54.2152 62.7241 53.5415 62.562 52.9185 62.2345L40.3933 55.6502C40.1468 55.5202 39.8531 55.5202 39.6083 55.6502L27.0831 62.2345C25.6497 62.9875 23.9464 62.8658 22.6379 61.9137C21.3277 60.9632 20.6845 59.3813 20.958 57.7858L23.3502 43.8391C23.3975 43.5656 23.3064 43.2854 23.1071 43.0912L12.9741 33.2149C11.816 32.0838 11.4058 30.4259 11.9071 28.8879C12.4069 27.3481 13.7119 26.2474 15.314 26.0145L29.3182 23.9802C29.5917 23.9397 29.8297 23.7674 29.953 23.5175L36.2147 10.8286C36.9325 9.37818 38.3826 8.47668 39.9999 8.47668C41.6189 8.47668 43.0692 9.37818 43.7851 10.8284L50.0486 23.5174C50.1718 23.7673 50.4082 23.9395 50.6833 23.98L64.6875 26.0144C66.288 26.2474 67.5948 27.3481 68.0944 28.8879ZM64.6689 30.7956C65.0083 30.4664 64.9323 30.0815 64.8833 29.9313C64.8343 29.781 64.6705 29.4248 64.2011 29.3573L50.1987 27.3213C48.8227 27.122 47.6342 26.2594 47.0197 25.0134L40.7581 12.3226C40.6534 12.1116 40.5032 11.9933 40.3597 11.9292C40.2162 11.8651 40.0794 11.8532 40.0001 11.8532C39.8431 11.8532 39.4531 11.8988 39.2437 12.3226L32.9802 25.0133C32.3657 26.2593 31.1771 27.1219 29.8028 27.3211L15.7986 29.3571C15.331 29.4246 15.1672 29.7809 15.1182 29.9311C15.0692 30.0814 14.9916 30.4663 15.331 30.7955L25.464 40.6736C26.4601 41.6444 26.9125 43.0406 26.6778 44.4097L24.2856 58.3565C24.2062 58.8225 24.495 59.0892 24.6216 59.1821C24.7499 59.275 25.0926 59.4675 25.5113 59.2462L38.0366 52.662C38.6511 52.3379 39.3264 52.1757 40.0001 52.1757C40.6753 52.1757 41.3489 52.3379 41.9652 52.662L54.4904 59.2462C54.9092 59.4673 55.2518 59.275 55.3784 59.1821C55.5067 59.0892 55.7954 58.8225 55.7144 58.3565L53.3222 44.4097C53.0875 43.0406 53.5417 41.6444 54.536 40.6736L64.6689 30.7956Z" fill="#EFBE44"/>
<path d="M64.8833 29.9311C64.9323 30.0814 65.0082 30.4662 64.669 30.7955L54.536 40.6736C53.5416 41.6443 53.0875 43.0406 53.3221 44.4097L55.7144 58.3564C55.7954 58.8224 55.5067 59.0892 55.3784 59.1821C55.2517 59.2749 54.909 59.4674 54.4904 59.2462L41.9651 52.6619C41.3489 52.3378 40.6753 52.1757 40 52.1757C39.3264 52.1757 38.6511 52.3378 38.0365 52.6619L25.5112 59.2463C25.0924 59.4674 24.7498 59.2751 24.6214 59.1822C24.4948 59.0893 24.206 58.8226 24.2854 58.3566L26.6777 44.4098C26.9123 43.0407 26.4599 41.6445 25.4638 40.6737L15.3308 30.7956C14.9914 30.4664 15.0692 30.0815 15.1181 29.9312C15.1671 29.781 15.3308 29.4247 15.7984 29.3572L29.8027 27.3212C31.1769 27.122 32.3654 26.2594 32.98 25.0134L39.2436 12.3225C39.453 11.8988 39.843 11.8531 40 11.8531C40.0794 11.8531 40.2161 11.865 40.3596 11.9291C40.5031 11.9933 40.6534 12.1115 40.758 12.3225L47.0198 25.0133C47.6343 26.2592 48.8229 27.1219 50.1987 27.3211L64.2012 29.3571C64.6706 29.4247 64.8343 29.7809 64.8833 29.9311Z" fill="#E4A738"/>
<path d="M59.7227 10.8283C60.4773 11.3753 60.6444 12.4321 60.0974 13.1851L58.3044 15.6518C57.9752 16.1076 57.4603 16.349 56.9369 16.349C56.5942 16.349 56.2464 16.2444 55.9459 16.0265C55.1929 15.4778 55.0258 14.4226 55.5728 13.668L57.3658 11.2014C57.9129 10.4468 58.9698 10.2796 59.7227 10.8283Z" fill="#EFBE44"/>
<path d="M41.6885 66.786V69.835C41.6885 70.7686 40.9339 71.5233 40.0002 71.5233C39.0684 71.5233 38.312 70.7686 38.312 69.835V66.786C38.312 65.8542 39.0684 65.0978 40.0002 65.0978C40.9339 65.0978 41.6885 65.8542 41.6885 66.786Z" fill="#EFBE44"/>
<path d="M24.4207 13.6579C24.9677 14.4125 24.8005 15.4678 24.0475 16.0164C23.747 16.2342 23.3993 16.3389 23.0565 16.3389C22.5332 16.3389 22.0183 16.0975 21.6891 15.6433L19.8962 13.1767C19.3492 12.4221 19.5163 11.3652 20.2693 10.8182C21.0239 10.2694 22.0808 10.4367 22.6278 11.1913L24.4207 13.6579Z" fill="#EFBE44"/>
<path d="M14.1938 46.3529C14.4825 47.2409 13.9979 48.1931 13.1099 48.4818L10.2111 49.4238C10.0373 49.4795 9.86164 49.5065 9.68952 49.5065C8.97702 49.5065 8.31527 49.0524 8.08402 48.3399C7.79527 47.4519 8.28152 46.4996 9.1679 46.211L12.0666 45.269C12.9545 44.982 13.9068 45.4665 14.1938 46.3529Z" fill="#EFBE44"/>
<defs>
<filter id="filter0_f" x="0" y="0" width="80" height="80" filterUnits="userSpaceOnUse" color-interpolation-filters="sRGB">
<feFlood flood-opacity="0" result="BackgroundImageFix"/>
<feBlend mode="normal" in="SourceGraphic" in2="BackgroundImageFix" result="shape"/>
<feGaussianBlur stdDeviation="4" result="effect1_foregroundBlur"/>
</filter>
</defs>
</svg>

<svg width="80" height="80" fill="none" xmlns="http://www.w3.org/2000/svg"><g filter="url(#a)"><path d="M70.833 46.215a1.688 1.688 0 0 1-1.043 3.21l-2.9-.941a1.687 1.687 0 1 1 1.044-3.212l2.899.943ZM68.094 28.888a4.196 4.196 0 0 1-1.068 4.327L56.893 43.09a.849.849 0 0 0-.243.748l2.392 13.947a4.195 4.195 0 0 1-1.678 4.128 4.21 4.21 0 0 1-2.477.81 4.223 4.223 0 0 1-1.968-.49L40.392 55.65a.839.839 0 0 0-.785 0l-12.525 6.584a4.193 4.193 0 0 1-4.445-.32 4.192 4.192 0 0 1-1.68-4.128l2.392-13.947a.844.844 0 0 0-.243-.748l-10.133-9.876a4.195 4.195 0 0 1-1.067-4.327 4.193 4.193 0 0 1 3.407-2.873l14.004-2.035a.847.847 0 0 0 .635-.463l6.262-12.688A4.199 4.199 0 0 1 40 8.477c1.619 0 3.07.901 3.785 2.351l6.264 12.69c.123.25.36.421.634.462l14.005 2.034a4.195 4.195 0 0 1 3.406 2.874Zm-3.425 1.908a.82.82 0 0 0 .214-.865.822.822 0 0 0-.682-.574L50.2 27.321a4.217 4.217 0 0 1-3.18-2.308l-6.26-12.69a.81.81 0 0 0-.4-.394.899.899 0 0 0-.359-.076.823.823 0 0 0-.756.47l-6.264 12.69a4.217 4.217 0 0 1-3.177 2.308l-14.004 2.036a.821.821 0 0 0-.68.574.819.819 0 0 0 .212.864l10.133 9.879a4.219 4.219 0 0 1 1.214 3.736l-2.392 13.947c-.08.465.209.732.336.825a.822.822 0 0 0 .89.064l12.525-6.584a4.21 4.21 0 0 1 3.928 0l12.525 6.584a.819.819 0 0 0 .888-.064.82.82 0 0 0 .336-.826L53.322 44.41a4.224 4.224 0 0 1 1.214-3.736l10.133-9.878Z" fill="#D6A850"/><path d="M64.883 29.931a.82.82 0 0 1-.214.864l-10.133 9.879a4.224 4.224 0 0 0-1.214 3.736l2.392 13.946a.82.82 0 0 1-.336.826.819.819 0 0 1-.888.064l-12.525-6.584a4.216 4.216 0 0 0-3.929 0l-12.525 6.584a.823.823 0 0 1-.89-.064.827.827 0 0 1-.336-.825l2.393-13.947a4.22 4.22 0 0 0-1.214-3.736L15.33 30.796a.82.82 0 0 1-.213-.865.821.821 0 0 1 .68-.574l14.005-2.036a4.217 4.217 0 0 0 3.177-2.308l6.264-12.69c.209-.424.599-.47.756-.47.08 0 .216.012.36.076a.81.81 0 0 1 .398.393l6.262 12.691a4.217 4.217 0 0 0 3.179 2.308L64.2 29.357c.47.068.633.424.682.574Z" fill="#CCA14F"/><path d="M59.723 10.828c.754.547.921 1.604.374 2.357l-1.793 2.467a1.684 1.684 0 0 1-2.358.375 1.69 1.69 0 0 1-.373-2.359l1.793-2.467a1.686 1.686 0 0 1 2.357-.373ZM41.688 66.786v3.049a1.688 1.688 0 1 1-3.377 0v-3.049a1.689 1.689 0 0 1 3.377 0ZM24.42 13.658a1.69 1.69 0 0 1-1.364 2.68 1.684 1.684 0 0 1-1.367-.695l-1.793-2.466a1.687 1.687 0 1 1 2.732-1.985l1.793 2.466ZM14.194 46.353a1.688 1.688 0 0 1-1.084 2.129l-2.899.942a1.689 1.689 0 0 1-1.043-3.213l2.899-.942a1.688 1.688 0 0 1 2.127 1.084Z" fill="#D6A850"/></g><path d="M70.833 46.215a1.688 1.688 0 0 1-1.043 3.21l-2.9-.941a1.687 1.687 0 1 1 1.044-3.212l2.899.943ZM68.094 28.888a4.196 4.196 0 0 1-1.068 4.327L56.893 43.09a.849.849 0 0 0-.243.748l2.392 13.947a4.195 4.195 0 0 1-1.678 4.128 4.21 4.21 0 0 1-2.477.81 4.223 4.223 0 0 1-1.968-.49L40.392 55.65a.839.839 0 0 0-.785 0l-12.525 6.584a4.193 4.193 0 0 1-4.445-.32 4.192 4.192 0 0 1-1.68-4.128l2.392-13.947a.844.844 0 0 0-.243-.748l-10.133-9.876a4.195 4.195 0 0 1-1.067-4.327 4.193 4.193 0 0 1 3.407-2.873l14.004-2.035a.847.847 0 0 0 .635-.463l6.262-12.688A4.199 4.199 0 0 1 40 8.477c1.619 0 3.07.901 3.785 2.351l6.264 12.69c.123.25.36.421.634.462l14.005 2.034a4.195 4.195 0 0 1 3.406 2.874Zm-3.425 1.908a.82.82 0 0 0 .214-.865.822.822 0 0 0-.682-.574L50.2 27.321a4.217 4.217 0 0 1-3.18-2.308l-6.26-12.69a.81.81 0 0 0-.4-.394.899.899 0 0 0-.359-.076.823.823 0 0 0-.756.47l-6.264 12.69a4.217 4.217 0 0 1-3.177 2.308l-14.004 2.036a.821.821 0 0 0-.68.574.819.819 0 0 0 .212.864l10.133 9.879a4.219 4.219 0 0 1 1.214 3.736l-2.392 13.947c-.08.465.209.732.336.825a.822.822 0 0 0 .89.064l12.525-6.584a4.21 4.21 0 0 1 3.928 0l12.525 6.584a.819.819 0 0 0 .888-.064.82.82 0 0 0 .336-.826L53.322 44.41a4.224 4.224 0 0 1 1.214-3.736l10.133-9.878Z" fill="#EFBE44"/><path d="M64.883 29.931a.82.82 0 0 1-.214.864l-10.133 9.879a4.224 4.224 0 0 0-1.214 3.736l2.392 13.946a.82.82 0 0 1-.336.826.819.819 0 0 1-.888.064l-12.525-6.584a4.216 4.216 0 0 0-3.929 0l-12.525 6.584a.823.823 0 0 1-.89-.064.827.827 0 0 1-.336-.825l2.393-13.947a4.22 4.22 0 0 0-1.214-3.736L15.33 30.796a.82.82 0 0 1-.213-.865.821.821 0 0 1 .68-.574l14.005-2.036a4.217 4.217 0 0 0 3.177-2.308l6.264-12.69c.209-.424.599-.47.756-.47.08 0 .216.012.36.076a.81.81 0 0 1 .398.393l6.262 12.691a4.217 4.217 0 0 0 3.179 2.308L64.2 29.357c.47.068.633.424.682.574Z" fill="#E4A738"/><path d="M59.723 10.828c.754.547.921 1.604.374 2.357l-1.793 2.467a1.684 1.684 0 0 1-2.358.375 1.69 1.69 0 0 1-.373-2.359l1.793-2.467a1.686 1.686 0 0 1 2.357-.373ZM41.688 66.786v3.049a1.688 1.688 0 1 1-3.377 0v-3.049a1.689 1.689 0 0 1 3.377 0ZM24.42 13.658a1.69 1.69 0 0 1-1.364 2.68 1.684 1.684 0 0 1-1.367-.695l-1.793-2.466a1.687 1.687 0 1 1 2.732-1.985l1.793 2.466ZM14.194 46.353a1.688 1.688 0 0 1-1.084 2.129l-2.899.942a1.689 1.689 0 0 1-1.043-3.213l2.899-.942a1.688 1.688 0 0 1 2.127 1.084Z" fill="#EFBE44"/><defs><filter id="a" x="0" y="0" width="80" height="80" filterUnits="userSpaceOnUse" color-interpolation-filters="sRGB"><feFlood flood-opacity="0" result="BackgroundImageFix"/><feBlend in="SourceGraphic" in2="BackgroundImageFix" result="shape"/><feGaussianBlur stdDeviation="4" result="effect1_foregroundBlur"/></filter></defs></svg>
